img/base/content/bg-splash.svg

<svg xmlns="http://www.w3.org/2000/svg" width="448" height="615"><g fill="none" fill-rule="evenodd" transform="translate(-79)"><path fill="#FEF6F5" fill-rule="nonzero" d="M77,40.9310885 C253.09,168.261089 338,168.101089 383,142.931089 C437.58,112.421089 473.29,22.9310885 511,33.9310885 C519.24,36.3510885 527.43,43.5210885 527,49.9310885 C525.64,70.3910885 437.24,74.3110885 377,86.9310885 C235.2,116.661089 68.45,232.621089 77,336.931089 C82.18,400.071089 151.54,458.561089 220,473.931089 C279.62,487.321089 328,465.651089 338,460.931089 C400.05,431.701089 424.44,377.331089 430,363.931089 C317.42,478.181089 177.28,524.831089 76,478.931089 C54.71,469.291089 26.77,451.761089 0,417.931089"/><circle cx="189.5" cy="405.5" r="29.5" fill="#FDEBE7"/><circle cx="237.5" cy="47.5" r="47.5" fill="#FEEFEC"/><path fill="#FEEFEC" fill-rule="nonzero" d="M80,378 C84.21,413.669469 96.37,462.41078 138,468.909997 C201.51,478.836691 275.25,381.320191 318,389.857826 C372.32,400.716206 387.63,585.037637 236,611.768565 C166.19,624.078117 77,600.153542 9,558.12602"/></g></svg>

<svg xmlns="http://www.w3.org/2000/svg" width="448" height="615" viewBox="0 0 448 615"><g fill="none" fill-rule="evenodd" transform="translate(-79)"><path fill="#FEF6F5" fill-rule="nonzero" d="M77 40.931c176.09 127.33 261 127.17 306 102 54.58-30.51 90.29-120 128-109 8.24 2.42 16.43 9.59 16 16-1.36 20.46-89.76 24.38-150 37-141.8 29.73-308.55 145.69-300 250 5.18 63.14 74.54 121.63 143 137 59.62 13.39 108-8.28 118-13 62.05-29.23 86.44-83.6 92-97-112.58 114.25-252.72 160.9-354 115-21.29-9.64-49.23-27.17-76-61"/><circle cx="189.5" cy="405.5" r="29.5" fill="#FDEBE7"/><circle cx="237.5" cy="47.5" r="47.5" fill="#FEEFEC"/><path fill="#FEEFEC" fill-rule="nonzero" d="M80 378c4.21 35.67 16.37 84.41 58 90.91 63.51 9.927 137.25-87.59 180-79.052 54.32 10.858 69.63 195.18-82 221.91-69.81 12.31-159-11.614-227-53.642"/></g></svg>
